X:548
T:Back of the Change House
T:Cl an Taigh Osda
S:Finn Moore via Niall Anderson, Glasgow,
Z:Nigel Gatherer
M:4/4
L:1/8
K:D
B | A>AA>f e>dB<d | A>AA>B d>ed>B | A>AA>f e>dB>g |1 f<ae>f d>ed>B :|
                                                   2 f<ae>f d>d d   |
g | f>ed>f e>dB>g | f>ef>g a>da>g | f>ed>f e>dB>g |  f<da>f d2 d :|]
